!!!COM: Robert Schumann
!!!CNT: Deutsch
!!!TXO: Deutsch
!!!OTL: An den Sonnenscheun
!!!LYR: Reinick
!!!OPR: Ausgewa2hlte Lieder
!!!OPS: Op. 36
!!!ONM: No.
!!!ENC: Ben Fuhrman
!!!YOR: Schumann Lieder - Max Friedlaender, ed.,
!!!YOR: New York: C. F. Peters, Vol. 1
!!!ODT: 1840/
!!NB: Vocal melody and text only encoded.
!!NB: First instance of melodic material only encoded.
**kern	**silbe
*clefG2	*
*k[f#c#g#]	*
*M4/4	*
!!created: 5/22/06 9:17
!!proofed and posted: 5/23/06 9:37
!!edit time: 47 minutes
=	=
2r	.
4r	.
{4c#	{O
=1	=1
4.c#	Son-
8e	-nen-
4e	-schein,
4e	o
=2	=2
4.e	Son-
8a	-nen0
4a}	-schein!}
{(8a	{Wie
8b)	|
=3	=3
4cc#	scheinst
4b	du
4a	mir
4g#	ins
=4	=4
4.g#	Herz
8f#	hin-
4f#}	-ein,}
{4f#	{weck'st
=5	=5
4.f#	drin-
8a	-nen
4a	lau-
4a	-ter
=6	=6
4a.	Lie-
8dd	-bes-
4dd}	-lust,}
{(8dd	{dass
8ee)	|
=7	=7
4ff#	mir
4ee	so
4dd	en-
4cc#	-ge
=8	=8
4.b	wird
8a	die
4a}	Brust!}
4r	.
!! rest to measure 10
=10	=10
2r	.
4r	.
{4b	{Und
=11	=11
4b	en-
4b	-ge
4b	wird
(8cc#	mir
8dd#)	|
=12	=12
4ee	Stub'
4b	und
4g#}	Haus,}
4r	.
!! rest to measure 14
=14	=14
2r	.
4r	.
{4b	{und
=15	=15
4b	wenn
4b	ich
4b	lauf'
(8cc#	zum
8dd#)	|
=16	=16
4ee	Tor
4b	hin-
4g#}	-aus,}
{4e	{da
=17	=17
4.e	lock'st
8a	du
4a	gar
4a	ins
=18	=18
4.a	fri-
8cc#	-sche
4cc#	Gru2n
(8a	die
8b)	|
=19	=19
4cc#	al-
4b	-ler-
4a	-scho2n-
4g#	-sten
=20	=20
4.g#	Ma2d-
8f#	-chen
4f#}	hin,}
{4a	{die
=21	=21
4.f#	al-
8a	-ler-
4a	-scho2n-
4a	-sten
=22	=22
(4.a	Ma2d-
8ff#)	|
4ff#}	-chen!}
4r	.
!! rest to measure 24
=24	=24
2r	.
4r	.
{4e	{O
=25	=25
4.f#	Son-
8f#	-nen-
4e	-schein!
4e	du
=26	=26
4.f#	glau-
8f#	-best
4e	wohl,
(8e	dass
8a)	|
=27	=27
4g#	ich
4f#	wie
4e	du
(8e	es
8a)	|
=28	=28
4g#	ma-
4f#	-chen
4e}	soll,}
{4e	{der
=29	=29
4.f#	je
8f#	-de
4.e	schmuk-
8e	-ke
=30	=30
4.f#	Blu-
8f#	-me
4e}	ku2sst,}
{(8e	{die
8a)	|
=31	=31
4g#	e-
4f#	-ben
4e	nur
(8e	sich
8a)	|
=32	=32
4g#	dir
4f#	ersch-
4e}	-liesst?}
{4c#	{Hast
=33	=33
4.c#	doch
8e	so
4e	lang'
4e	die
=34	=34
4.e	Welt
8a	er-
4a}	-blickt,}
{(8a	{und
8b)	|
=35	=35
4.cc#	weisst,
8b	dass
4a	sich's
4g#	fu2r
=36	=36
4.g#	mich
8f#	nicht
4f#}	schickt;}
4r	.
=37	=37
2r	.
4r	.
{4f#	{was
=38	=38
4.f#	machst
8a	du
4a	mir
4a	denn
=39	=39
4.a	sol-
8dd	-che
4dd}	Pein?}
{4ff#	{O
=40	=40
4.g#	Son-
8a	-nen-
4a	-schein,
4e	o
=41	=41
4.e	Son-
8e	-nen-
2e}	-schein!}
==	==
*-	*-
